public/illustrations/_hat.svg

<svg width="266" height="159" viewBox="0 0 266 159" fill="none" xmlns="http://www.w3.org/2000/svg">
<path d="M69.3364 116.536C70.0444 117.768 70.1295 118.207 70.5259 118.533C75.4956 122.27 76.4156 127.665 76.2882 133.357C76.1466 138.043 75.6089 142.546 75.1842 147.204C75.0709 148.181 74.9434 149.172 75.0849 150.333C75.3398 154.071 74.4194 155.812 71.1063 157.271C68.8409 158.276 66.4906 158.856 64.0695 158.842C61.6483 158.828 59.1564 158.247 57.0043 157.129C55.5318 156.379 54.0451 155.628 52.7425 154.623C48.6507 151.848 46.6968 148.039 48.1552 143.084C49.4861 137.972 50.7177 132.55 52.1902 127.453C53.2237 123.587 55.6449 120.175 58.9155 117.853C61.2517 116.281 60.912 111.963 58.6749 110.406C53.9318 107.121 49.1888 103.978 44.304 100.679C43.7802 100.325 43.242 99.9848 42.7039 99.7725C38.7961 97.8752 38.2015 96.9409 38.4422 92.5518C39.2067 81.5222 40.113 70.5067 41.0191 59.4913C41.1182 58.6418 41.2456 57.6649 41.2597 56.3765C37.2811 55.0456 33.3168 53.7006 29.3241 52.5112C21.0837 49.9485 12.971 47.3997 4.73066 44.8229C1.44585 43.7185 -0.0550915 41.9631 0.0015431 39.1173C0.0440191 35.2661 1.27582 33.2838 4.95707 32.3069C10.7055 30.7211 16.3124 29.2626 22.0467 27.8184C59.2273 18.771 96.2804 9.56824 133.461 0.520901C136.562 -0.38525 139.96 -0.11643 142.919 1.38438C147.096 3.45154 152.023 3.91888 156.596 5.03741C164.766 7.01961 173.105 8.88838 181.275 10.8847L204.849 16.4493L228.848 22.0702L253.527 27.9176C256.018 28.4981 258.539 28.9511 261.017 29.6732C262.135 29.8148 263.07 30.3529 263.834 31.16C264.599 31.967 265.037 33.0146 265.179 34.1756C265.462 36.4976 263.877 37.8711 262.036 38.933C259.756 40.0799 257.703 41.6938 256.174 43.7893C255.013 45.0777 253.64 45.9131 252.026 46.2812C247.254 47.9803 242.525 49.4104 237.768 50.9678C236.437 51.3784 235.078 51.9307 233.733 52.4829C234.115 58.7976 234.511 64.8431 234.908 71.0163C235.304 77.1894 235.729 83.0938 236.154 88.998C236.338 91.0226 236.097 92.9905 235.163 94.8736C234.356 96.7709 233.039 98.3283 231.34 99.4043C223.637 105.323 215.298 110.575 206.492 114.936C203.915 116.196 201.578 117.768 199.03 118.887C197.062 119.793 194.895 120.09 192.927 120.996C175.413 127.863 156.837 131.601 138.119 131.898C115.819 132.337 93.6895 127.807 73.4002 118.646C72.3383 117.952 71.1061 117.513 69.1947 116.848L69.3648 116.579L69.3364 116.536ZM87.3604 59.5338L87.6577 60.5674C88.0683 60.7656 88.6062 60.9637 89.0168 61.1619L123.253 71.7242C134.806 75.2638 130.375 75.2922 141.362 71.7809C175.951 60.5673 210.526 49.4952 245.13 38.14C246.32 37.7153 247.509 37.2907 248.712 36.8659C244.337 35.3368 239.92 34.0906 235.474 33.1278C225.209 30.7492 214.944 28.3567 204.679 25.978C194.131 23.5569 183.739 21.0222 173.205 18.6011C161.694 15.9251 150.182 13.2495 138.827 10.4461C137.171 9.9647 135.316 10.0213 133.56 10.3752C96.5212 19.4367 59.3262 28.6257 22.1455 37.673C21.2677 37.8571 20.3759 38.1685 19.1866 38.5932C19.6963 39.0888 19.9509 39.4002 20.3474 39.5842L73.2443 56.2631C74.1929 56.6596 75.0565 56.6312 76.0618 56.6029C76.9397 56.4188 77.8458 55.9659 78.4971 55.3288C82.6172 51.9732 86.9497 49.0848 91.5513 46.4938C103.685 40.5472 116.018 35.1953 128.265 29.546C129.468 28.9797 130.643 28.6965 131.96 28.4274C132.994 28.1301 134.126 28.2576 135.188 28.8239C136.123 29.3619 137.015 30.1831 137.326 31.2166C137.765 32.2644 137.779 33.4112 137.369 34.3598C136.958 35.45 136.151 36.2144 135.231 36.6675C133.546 37.602 131.861 38.5365 130.077 39.1878C119.345 44.1574 108.499 48.9858 97.9085 53.9696C94.2981 55.5271 91.1833 57.7216 87.8136 59.5905L87.3887 59.5338H87.3604ZM189.359 66.4714C187.434 67.0944 186.259 67.3775 185.055 67.8022L138.148 82.9522C134.891 83.9858 131.663 84.7362 128.364 83.6176C114.488 79.2285 100.754 74.8534 86.8789 70.4642C84.2737 69.5722 81.4988 68.9635 78.6104 68.0432C77.1521 71.866 75.5947 75.2355 74.4479 78.8035C71.9418 86.4916 71.1346 94.3781 70.7381 102.321C70.6107 105.733 70.3134 105.832 73.5557 107.362C85.2508 113.195 97.8803 117.301 110.722 119.566C132.215 123.446 154.458 122.299 175.441 116.282C180.921 114.668 186.414 112.756 191.795 110.845C190.889 95.9073 190.096 81.2532 189.345 66.33V66.4714H189.359ZM60.983 100.693C61.8183 87.9644 63.9419 76.241 69.5629 65.2256C63.0924 63.3001 57.3725 61.0345 51.3975 59.7461C51.0436 60.2699 50.8735 60.539 50.8452 60.8221C49.9673 70.4075 49.0895 80.0072 48.3532 89.6209C48.2966 90.0456 48.2542 90.4703 48.4808 90.9233C48.5657 91.3623 48.8205 91.6737 49.0612 91.9852C52.7141 94.8453 56.5088 97.5923 60.983 100.707V100.693ZM211.489 59.1657C211.687 72.8854 212.509 86.0951 213.104 100.013C217.45 97.1105 220.891 94.5339 224.614 92.1411C225.365 91.8013 225.875 91.15 226.257 90.343C226.639 89.5359 226.724 88.8281 226.54 87.9502C225.931 80.0356 225.464 72.1351 224.997 64.2346C224.77 61.3604 224.558 58.472 224.402 55.0315L211.631 59.194H211.489V59.1657ZM65.372 149.285C65.7684 142.489 66.2072 136.557 66.3488 130.582C66.5329 129.038 66.2356 126.858 64.2817 126.476C62.3137 126.235 61.6201 128.429 61.3086 129.817C60.0768 134.093 58.9865 138.383 58.0237 142.829C57.3016 146.454 57.6554 147.062 61.0677 148.337C62.5826 148.804 63.9704 149.115 65.5137 149.299H65.372V149.285ZM201.338 106.427C203.929 105.025 203.419 103.397 203.306 101.953C203.079 94.3639 202.697 86.9024 202.485 79.3134C202.286 73.8764 201.946 68.4112 201.748 62.9601C199.794 63.3849 198.85 64.5083 198.917 66.33C199.412 76.3685 199.893 86.5625 200.53 96.6151C200.715 99.7725 201.069 102.817 201.465 106.569L201.338 106.413V106.427Z" fill="#102185"/>
</svg>

<svg xmlns="http://www.w3.org/2000/svg" width="266" height="159" fill="none" viewBox="0 0 266 159"><path fill="#102185" d="M69.336 116.536c.708 1.232.793 1.671 1.19 1.997 4.97 3.737 5.89 9.132 5.762 14.824-.141 4.686-.68 9.189-1.104 13.847-.113.977-.24 1.968-.1 3.129.256 3.738-.665 5.479-3.978 6.938-2.265 1.005-4.615 1.585-7.036 1.571-2.422-.014-4.914-.595-7.066-1.713-1.472-.75-2.959-1.501-4.261-2.506-4.092-2.775-6.046-6.584-4.588-11.539 1.331-5.112 2.563-10.534 4.035-15.631 1.034-3.866 3.455-7.278 6.726-9.6 2.336-1.572 1.996-5.89-.241-7.447-4.743-3.285-9.486-6.428-14.371-9.727-.524-.354-1.062-.694-1.6-.907-3.908-1.897-4.502-2.831-4.262-7.22.765-11.03 1.671-22.045 2.577-33.06.1-.85.227-1.827.24-3.115-3.978-1.331-7.942-2.676-11.935-3.866-8.24-2.562-16.353-5.111-24.593-7.688-3.285-1.105-4.786-2.86-4.73-5.706.043-3.85 1.275-5.833 4.956-6.81a780 780 0 0 1 17.09-4.489C59.227 18.771 96.28 9.568 133.46.521a12.93 12.93 0 0 1 9.458.863c4.177 2.068 9.104 2.535 13.677 3.653 8.17 1.983 16.509 3.851 24.679 5.848l23.574 5.564 23.999 5.621 24.679 5.848c2.491.58 5.012 1.033 7.49 1.755 1.118.142 2.053.68 2.817 1.487s1.203 1.855 1.345 3.016c.283 2.322-1.302 3.695-3.143 4.757-2.28 1.147-4.333 2.76-5.862 4.856-1.161 1.289-2.534 2.124-4.148 2.492-4.772 1.7-9.501 3.13-14.258 4.687-1.331.41-2.69.963-4.035 1.515.382 6.315.778 12.36 1.175 18.533.396 6.173.821 12.078 1.246 17.982.184 2.025-.057 3.992-.991 5.876-.807 1.897-2.124 3.454-3.823 4.53-7.703 5.919-16.042 11.171-24.848 15.532-2.577 1.26-4.914 2.832-7.462 3.951-1.968.906-4.135 1.203-6.103 2.109-17.514 6.867-36.09 10.605-54.808 10.902-22.3.439-44.43-4.091-64.719-13.252-1.062-.694-2.294-1.133-4.205-1.798l.17-.269zM87.36 59.534l.298 1.033c.41.199.948.397 1.359.595l34.236 10.562c11.553 3.54 7.122 3.568 18.109.057 34.589-11.214 69.164-22.286 103.768-33.641 1.19-.425 2.379-.85 3.582-1.274a112 112 0 0 0-13.238-3.738c-10.265-2.379-20.53-4.771-30.795-7.15-10.548-2.421-20.94-4.956-31.474-7.377-11.511-2.676-23.023-5.351-34.378-8.155-1.656-.481-3.511-.425-5.267-.07-37.039 9.06-74.234 18.25-111.414 27.297-.878.184-1.77.495-2.96.92.51.496.765.807 1.161.991l52.897 16.68c.949.396 1.813.367 2.818.339.878-.184 1.784-.637 2.435-1.274 4.12-3.356 8.453-6.244 13.054-8.835 12.134-5.947 24.467-11.299 36.714-16.948 1.203-.566 2.378-.85 3.695-1.119 1.034-.297 2.166-.17 3.228.397.935.538 1.827 1.36 2.138 2.393.439 1.047.453 2.194.043 3.143-.411 1.09-1.218 1.854-2.138 2.307-1.685.935-3.37 1.87-5.154 2.52-10.732 4.97-21.578 9.799-32.168 14.783-3.61 1.557-6.726 3.752-10.095 5.62l-.425-.056zM189.36 66.47c-1.925.623-3.1.906-4.304 1.331l-46.907 15.15c-3.257 1.034-6.485 1.784-9.784.666-13.876-4.39-27.61-8.765-41.485-13.154-2.605-.892-5.38-1.5-8.269-2.42-1.458 3.822-3.015 7.192-4.162 10.76-2.506 7.688-3.313 15.574-3.71 23.517-.127 3.412-.425 3.511 2.818 5.041 11.695 5.833 24.324 9.939 37.166 12.204 21.493 3.88 43.736 2.733 64.719-3.284 5.48-1.614 10.973-3.526 16.354-5.437a4303 4303 0 0 1-2.45-44.515v.141zM60.983 100.693c.835-12.729 2.959-24.452 8.58-35.467-6.47-1.926-12.19-4.191-18.165-5.48-.354.524-.525.793-.553 1.076-.878 9.585-1.755 19.185-2.492 28.799-.056.425-.099.85.128 1.302.085.44.34.75.58 1.062 3.653 2.86 7.448 5.607 11.922 8.722zm150.506-41.527c.198 13.72 1.02 26.93 1.615 40.847 4.346-2.903 7.787-5.48 11.51-7.872.751-.34 1.261-.991 1.643-1.798s.467-1.515.283-2.393c-.609-7.914-1.076-15.815-1.543-23.715a264 264 0 0 1-.595-9.203l-12.771 4.162h-.142zM65.372 149.285c.396-6.796.835-12.728.977-18.703.184-1.544-.113-3.724-2.067-4.106-1.968-.241-2.662 1.953-2.973 3.341a199 199 0 0 0-3.285 13.012c-.722 3.625-.369 4.233 3.044 5.508 1.515.467 2.902.778 4.446.962h-.142zm135.966-42.858c2.591-1.402 2.081-3.03 1.968-4.474-.227-7.59-.609-15.05-.821-22.64-.199-5.437-.539-10.902-.737-16.353q-2.931.637-2.831 3.37c.495 10.039.976 20.233 1.613 30.285.185 3.157.539 6.202.935 9.954l-.127-.156z"/></svg>
